X:1
T:Waltz of the Flowers
T:Waltz of the Flowers
T:From the Ballet "The Nutcracker"
T:Peter Tchaikovsky
T:Arranged for Piano 4 hands by Eduard Langer (1835 - 1905)
C:Peter Tchaikovsky
Z:Arranged for piano 4 hands by Eduard Langer
%%score { ( 1 3 ) | ( 2 4 ) } { ( 5 7 ) | ( 6 8 ) }
L:1/8
Q:1/4=150
M:3/4
K:D
V:1 treble nm="Primo" snm="Pri."
V:3 treble 
V:2 treble 
V:4 treble 
V:5 bass nm="Secondo" snm="Sec."
V:7 bass 
V:6 bass 
V:8 bass 
V:1
"^Tempo di Valse"!f! z2 !>!c2 !>![ce]2 |!sfz! !>![^Bf]4!f! !>![ce]2 | !>![ce]4 x2 | %3
 e'/c'/a/e/ z2 z2 |!f! z2 c2 [ce]2 |!sfz! [^Bfa]4!f! [ce=g]2 | [ceg]4!ff! x2 | g'/e'/c'/a/ z2 z2 | %8
!f! !>!c2 !>![ce]2 !>![ceg]2 | !>![fb]4 .f2 | [ea]4 .[eg]2 |!>(! [B^dg]4 .[Bd]2 | [B^df]4 .[Be]2 | %13
 [Be]4 .B2!>)! |!p! !>![Bd]2 !>![Ac]2 !>!B2 |!ff! .A z .c z .e z | f/e/c/A/ e/c/A/G/ z2 | %17
 z2 .c z .e z | a/g/e/c/ g/e/c/A/ e/c/A/G/ | .c z .e z .g z | b/g/e/c/ a/g/e/c/ d'/a/g/e/ | %21
 c'/a/g/e/ f'/c'/a/g/ e'/c'/a/g/ |!8va(! a'/e'/c'/a/ g'/e'/c'/a/ b'/g'/e'/c'/ | %23
!ff! a'/g'/e'/c'/ g'/e'/c'/a/ e'/c'/a/g/!8va)! | c'/a/g/e/ a/g/e/c/ g/e/c/A/ | e/c/A/G/ z2 z2 | %26
 z6 | z4!mf! (6:4:6A,/4!<(!C/4E/4A/4c/4e/4 (6:4:6a/4c'/4e'/4!8va(!a'/4c''/4e''/4!<)! | %28
 .a'' z[Q:1/4=120]"_rit." [c'e'g']2 [gac'e']2!8va)! | [egc']2[Q:1/4=108] [ceg]2 [ce]2 | %30
[Q:1/4=96]!>(! c6 | B6!>)! |[Q:1/4=48]!p! !fermata!A6 ||[Q:1/4=150]"^a tempo" z6 | z6 | z6 | z6 | %37
 z6 | z6 | z6 | z6 | z6 | z6 | z6 | z6 | z6 | z6 | z6 | z6 | ^AcBABc |!mf! edcdBG | %51
 z2!pp! .^G2 G2 | A z z4 | z6 | z6 | z6 | z6 | z6 | z6 | z6 | z6 | z6 | z6 | cd^Bd c z | %64
 z2 ^Bc^d^e | f^ga^egf |!f! a^e^gfaf | afafa^e | f!mf! z!<(! Bcd=e!<)! |:!f! f4 c2 | e4 B2 | %71
 [Bd]4 G2 | (5:4:5[ac']/d'/c'/d'/c'/ [a^b] z .[ac'] z | [dg]4 d2 | [cf]4 c2 | [ce]4 A2 | %76
 (5:4:5d'/e'/d'/e'/d'/ [fc'] z [fd'] z | [df]4 [Ac]2 | [ce]4 B2 | [Bd]4 G2 | %80
 (5:4:5[ac']/d'/c'/d'/c'/ [a^b] z .[ac'] z |1!f!!<(! [dg]4 d2 | [^dg]4 d2 | [eg]4 e2!<)! | %84
!sfz! [ea]!mf!!<(! z Bcde!<)! :|2!f!!<(! [a=b]4 [da]2 || [ab]4 [^da]2!<)! | %87
!sfz! [eac'] z!mf!!<(! ef[eg]^g!<)! |!f! [cea] z z2 z2 | z6 | z6 |!mf! z!<(! ABcd!<)!!f!f | %92
 b!>(!afdB!mf!A!>)! | z6 | z6 |!mf! z!<(! cdef!f!a!<)! |!>(! d'afd A!mf!F!>)! | z2 z2!mp! z f | %98
 e=c G z z2 | z2 z2 z a | ge!mf! B z z2 |!<(! z2 d'2 b2!<)! |!f! g2 ed gb | %103
!mf! !//-!d2 e2 (5:4:5d/e/d/e/d/ |!>(! c z z4!>)! | z6 | z6 | z!mf! A!<(!Bcdf!<)! | %108
!f!!>(! bafd B!mf!A!>)! | z6 | z6 | z!mf! c!<(!defa!<)! |!f!!>(! d'afd!>)!!p! A z | z2 z2 z!mp! a | %114
 ^g^e c z z2 | z2 z2 z f | ^eB!<(! ^Bc^d^e | f^ga^egf!<)! | a^e^gfaf |!<(! afafa!<)!^e | %120
 f!f! z Bcd=e |:!ff! [df]4 [Ac]2 | [ce]4 B2 | [Bd]4 G2 | %124
!f! (5:4:5[ac']/d'/c'/d'/c'/ [a^b] z .[ac'] z |!f! [dg]4 d2 | [cf]4 c2 | [ce]4 A2 | %128
 (5:4:5[fd']/e'/d'/e'/d'/ [fc'] z .[fd'] z | [df]4 [Ac]2 | [ce]4 B2 | [Bd]4 G2 | %132
 (5:4:5[ac']/d'/c'/d'/c'/ [a^b] z .[ac'] z |1!f!!<(! [dg]4 d2 | [^dg]4 d2 | [eg]4 e2!<)! | %136
!sfz! .[ea]!mf!!<(! z Bcde!<)! :|2!f!!<(! [ab]4 a2 || [ab]4 a2!<)! | %139
!sfz! [gc'] z!mf!!<(! a^a[gb]c'!<)! |!ff! [fd'] z!p! d'2 ^d'2 | [ee']4 a z | z2 [Bb]2 [=c=c']2 | %143
 [dd']4 g z | z2 [Aa]2 [Bb]2 | [=c=c']4 e z | b4 g z | b4 a2 | z2!p! d'2 ^d'2 | [ee']4 a z | %150
 z2 [Bb]2 [=c=c']2 | [dd']4 g z | z2 [Bb]2 ^e2 | f2!f! b2 [dd']2 | [dd']4 [cc']2 | .[Bb] def^g^a | %156
 b z!p! [dd']2 [^d^d']2 | [ee']4 a z | z2 [Bb]2 [=c=c']2 | [dd']4 g z | z2 [Aa]2 [Bb]2 | %161
!p! [=c=c']4 e z | b4 g z | b4 a2 | d z [dd']2 [^d^d']2 | [ee']4 a z | z2 [Bb]2 [=c=c']2 | %167
 [dd']4 g z | z2!<(! [Bb]2 ^e2 | f2 b2 [dd']2!<)! | [dd']4 [cc']2 | z B B2 d2 | z B B2 d2 | %173
 z B B2 g2 | z B B2 g2 | z c c2 e2 | z c c2 ^a2 | z B B2 g2 | z B B2 g2 | z!p! B B2 f2 | %180
 z F F2 d2 | z G G2 B2 | z G G2 B2 | z F F2 e2 | z F F2 e2 | z F F2 d2 | [Fdf] z z2 z2 | %187
 z!p! B B2 d2 | z B B2 d2 | z B B2 g2 | z B B2 g2 | z c c2 e2 | z c c2 ^a2 | z B B2 g2 | %194
 z!<(! B B2 g2!<)! | z!mf! F F2 f2 | z B B2 f2 | z B B2 g2 | z!<(! B B2 g2!<)! | z2!f! B2 d2 | %200
 z ^A A2 c2 | z!>(! B B2 f2!>)! | [dfb] z!p! [dd']2 [^d^d']2 | [ee']=d'=c'bag | %204
 f z [Bb]2 [=c=c']2 | [dd']=c'bagf | e z [Aa]2 [Bb]2 |!<(! [=c=c'] bc'd'e'f'!<)! |!mp! g' z x4 | %209
 b4 x2 | d' z!p! [dd']2 [^d^d']2 | [ee'] =d'=c'bag | f z [Bb]2 [=c=c']2 | [dd']=c' ba gf | %214
!<(! g z g2 a2 | [Bb]4 e2 | [Bb]4 e2!<)! |!f! [Bb]2 e2 [Bb]2 | e2 [Bb]2 e2 |!ff! z6 | z6 | %221
!ff! (3bc'b c' z z2 | z6 | z6 | z6 | z6 | z6 |!mf! z!<(! ABcd!<)!!f!f | b!>(!afdB!mf!A!>)! | z6 | %230
 z6 |!mf! z!<(! cdef!f!a!<)! |!>(! d'afd A!mf!F!>)! | z2 z2!mp! z f | e=c!<(! G z z2 | %235
 z2 z2 z!<)!!f! a | ge B z z2 | z2 d'2 b2 | g2 edgb | d4- de/d/ | .c a_b=b=c'^c' | d' z z4 | z6 | %243
 z!mf! A!<(!Bcdf!<)! |!f!!>(! bafd B!mf!A!>)! | z6 | z6 | z!mf! c!<(!defa!<)! | %248
!f!!>(! d'afd!>)!!p! A z | z2 z2 z!mp! a | ^g^e!<(! c z z2 | z4 z!<)!!f! f | ^eB ^Bc^de | %253
 f^ga^egf |!<(! a^e^gfaf | af!<)!!ff!afa^e | f[Q:1/4=156] z Bcd=e |:!f! f4 c2 | [ce]4 B2 | %259
 [Bd]4 G2 | (5:4:5[ac']/d'/c'/d'/c'/ [a^b] z .[ac'] z | [dg]4 d2 | [cf]4 c2 | [ce]4 A2 | %264
 (5:4:5d'/e'/d'/e'/d'/ [fc'] z [fd'] z | [df]4 c2 | [ce]4 B2 | [Bd]4 G2 | %268
 (5:4:5[ac']/d'/c'/d'/c'/ [a^b] z .[ac'] z |1!f!!<(! [dg]4 d2 | [^dg]4 d2 | [eg]4 e2!<)! | %272
!sfz! .[ea]!mf!!<(! z Bcde!<)! :|2!f![Q:1/4=162]!<(! [ab]4 a2 || [ab]4 a2!<)! | %275
!sfz! [gc'] z!mf!!<(! ef[deg]^g!<)! | [cea]!ff! ^ga^abc' | d'6 | [cc']6 | [dd'] c'.b.aba | %280
 .f.d.f.a.b.d' |!sfz! f'6 |!f! [gg']2 [aa']2 [gg']2 | [ff']e.d.A.F.A |!sfz! [=fa=c'] z z4 | %285
 z2 z2 z [gg'] | [=f=f']6- | [ff']4- [ff']_b |!p! d'=c'ag =f z | z2 z2 z [gg'] | [=f=f']6- | %291
 [ff']4- [ff']_b |!pp! d'=c'ag =f z | _B=c!<(!AcBd | =cd=Bdc_e | d_e^ced=f | =e=f^dfeg!<)! | %297
!mf! ^fgfa ga |g_b!<(! aba=c' | =b=c'bd' ^c'd' |[Q:1/4=168] c'e' d'=f' e'g'!<)! |!ff! =f'6 | e'6 | %303
 =f'e'd'=c'd'c' |!<(! a=fa=c'd'=f'!<)! |!ff!!8va(! [aa']6 | [_b_b']6 | a'=g'=f'!8va)!=c'ac' | %308
!sfz! [ga^c']!mf!!<(! a^gab!ff!c'!<)! |!ff! [ad']4 a2 | [^ad']4 a2 |: c'b^abge | (3bc'b ^a z b z | %313
 [cgc']4 [cg]2 | [^gc']4 g2 | [fb]a^gafd | (3aba ^g z .a z | [=f_b]4 f2 | [e^g]4 e2 | %319
 [ea]2 e2!p! (3fgf | d z (3gag e z |!<(! (3^gag =f z (3a_ba | ^f z (3_b=c'b g z | %323
 (3=b=c'b ^g z (3c'd'c' | a z (3^c'd'c' a!<)!!ff! z |1 z6 | z6 :|2[Q:1/4=174] .d' z (3c'd'c' a z || %328
 (3bc'b g z .[egac'] z | [fad'] z (3c'd'c' a z | (3bc'b g z .[egac'] z | %331
[Q:1/4=180] .[fad'] z (3c'd'c' [gb] z | .[fad'] z (3c'd'c' [gb] z | .[fad'] z (3c'd'c' [gb] z | %334
 .[fad'] z (3c'd'c' [gb] z | !>![dfa]2 !>![fad']2 !>![ad'f']2 | %336
!8va(! !>![d'g']2 !>![c'e'a']7/2!8va)! [fad']/ | !>![fad']2 !>![df]2 !>![dfa]2 | %338
 !>![dfad'] z z2 z2 |] %339
V:2
 !>![EA]2 !>![EA]2 !>![EA]2 | !>![EA]4 !>![EA]2 | %2
 !>![EA]4!ff!!ped! (6:4:6E/A/c/[I:staff -1]e/a/c'/ |[I:staff +1] z2 c/A/E/C/!ped-up! z2 | %4
 [EA]2 [EA]2 [EA]2 | [FA]4 [E=G]2 | [EG]4!ped! (7:4:7E/A/c/e/[I:staff -1]a/c'/e'/ | %7
[I:staff +1] z2 e/c/A/E/!ped-up! z2 | !>![EA]2 !>![EA]2 !>![EA]2 | !>![FB]4 .[FB]2 | [EA]4 .[EG]2 | %11
 [^DG]4 .[DF]2 | [^DF]4 .E2 | =D4 .D2 | !>!D2 !>!C2 !>![B,D=F]2 | %15
!ped! [CE]/G/E/C/ z/ A/G/E/ z/ c/A/G/!ped-up! |!ped! z2 z2 c/A/G/E/!ped-up! | %17
!ped! A/G/E/C/ z/ A/G/E/ z/ c/A/G/!ped-up! |!ped! z6!ped-up! | %19
!ped! z/ A/G/E/ z/ c/A/G/ z/ e/c/A/!ped-up! |!ped! z6!ped-up! |!ped! z6!ped-up! |!ped! z6!ped-up! | %23
!ped! z6!ped-up! |!ped! z6!ped-up! |!ped! z2 c/A/G/E/ A/G/E/C/!ped-up! | %26
!ped! G/E/C/A,/[K:bass] E/C/A,/G,/ C/A,/G,/E,/!ped-up! | %27
!ped! A,/G,/E,/C,/ G,/E,/C,/E,/!ped-up! .[C,E,G,] z |[K:treble] z2!ff! [ceg]2 [GAce]2 | %29
 [EGc]2 [CEG]2 [CEG]2 | [CEG]6 | [D=F]6 | !fermata![CEG]6 || z6 | z6 | z6 | z6 | %37
!p! !>!A,2!<(! !>!D2 !>![DF]2!<)! |!mp!!>(! !>![CEG]4- [CEG]>[DF]!>)! |!p! [DF]6- | [DF]6 | %41
!p! !>!A,2!<(! !>!D2 !>![DF]2!<)! |!mp! !>![CEG]2!>(! !>![DF]7/2 [CE]/!>)! |!p! !>![DA]4 D2 | %44
 z2!p! A,B,CD | ^DFDF E z | z2"^cresc."!<(! =C=D^DE | FAFA G z | z2 EFGA | z6!<)! | %50
 z2 [G,EG]2 [G,E]2 |!mp! F4 E2- | E!>(!_EDCB,_B,!>)! |!p! !>!A,2!<(! !>!D2 !>![DF]2!<)! | %54
!mp!!>(! !>![CEG]4- [CEG]>[DF]!>)! |!p! [DF]6- | [DF]6 |!p! !>!A,2!<(! !>!D2 !>![DF]2!<)! | %58
!mp! !>![CEG]2!>(! !>![DF]7/2 [CE]/!>)! |!p! !>![DA]4 D2 | z2 DEF^G | AB^GB A z | %62
 z2"^cresc."!<(! ^^F^GAB | z6 | z6 | z6!<)! | z6 | z6 | z A ^GABc |: d4 A2 | c4 D2 | D4 E2 | %72
 (5:4:5[Ac]/d/c/d/c/ [A^B] z .[Ac] z | [DG]4 .[DG]2 | [CF]4 .[CE]2 | [CE]4 .F2 | %76
 (5:4:5d/e/d/e/d/ c z [Fd] z | [DF]4 C2 | [CE]4 [B,D]2 | [B,D]4 [B,E]2 | %80
 (5:4:5[Ac]/d/c/d/c/ [A^B] z .[Ac] z |1 [DG]4 .[DG]2 | [^DG]4 .[DG]2 | [EG]4 .[EG]2 | %84
 .[EA]!ped! A^GABc!ped-up! :|2 [A=Bd]4 [AB]2 || [AB^d]4 [A^B]2 | [Ac] z EFG^G | %88
 A!>(!=GECB,_B,!>)! |!p! !>!A,2!<(! !>!D2 !>![DF]2!<)! |!mp!!>(! !>![CEG]4- [CEG]>!p![DF]!>)! | %91
 [DF]6- | [DF]6 |!p! !>!A,2!<(! !>!D2 !>![DF]2!<)! |!mp! !>![CEG]2!>(! !>![DF]7/2 [CE]/!>)! | %95
 !>![DA]4 D2 | z2!p! A,B,CD | ^DFDF E!ped! z | z2"^cresc." =C!ped-up!=D^DE | FAFA G!ped! z | %100
 z2 E!ped-up!FGA | ^AcBABc | e!>(!dcd BG!>)! |!ped! F4 E2-!ped-up! | E_EDCB,_B, | %105
!p! !>!A,2!<(! !>!D2 !>![DF]2!<)! |!mp!!>(! !>![CEG]4- [CEG]>!p![DF]!>)! | [DF]6- | [DF]6 | %109
!p! !>!A,2 !>!D2 !>![DF]2 | [CEG]2 [CF]7/2 [CE]/ | [DA]4 D2 | z2!p! DEF^G | AB^GB A z | %114
 z2"^cresc."!<(! ^^F^GAB | cd^Bd!<)!!mf! c z | z6 | z6 |"^cresc." z6 | z6 | z A^GABc |: F4 C2 | %122
 [CE]4 .[B,D]2 | [B,D]4 E2 | (5:4:5[Ac]/d/c/d/c/ [A^B] z .[Ac] z | [DG]4 .[DG]2 | [CF]4 .[CE]2 | %127
 [CE]4 .F2 | (5:4:5d/e/d/e/d/ c z .[Fd] z | [DF]4 .C2 | [CE]4 .[B,D]2 | [B,D]4 [B,E]2 | %132
 (5:4:5[Ac]/d/c/d/c/ [A^B] z .[Ac] z |1 [DG]4 .[DG]2 | [^DG]4 .[DG]2 | [EG]4 .[EG]2 | %136
 .[EA]!ped! A^GABc!ped-up! :|2 [AB]4 [AB]2 || [AB]4 [A^B]2 | [GAc] z A^A[EG=B]c | [F=Ad] z d2 ^d2 | %141
 z =d=cBAG | [FA]GFED=C | z =cBAGF | GFEFED | AB=cdef | ^cdef z2 | FGAB=c^c | d z d2 ^d2 | %149
 z =d=cBAG | [FA]GFED=C | z!<(! =cBAGF | GFED ^E2!<)! | F"^più" =edc BG | [EF]2 [EF]2 [EF]2 | %155
 .[DF] DEF^G^A | BcB=A =GF | z =d=cBAG | [FA]GFED=C | B, =cBAGF | E FEFED | AB=cdef | ^cdef z2 | %163
 FGAB=c^c | z FGAGF | z =d=cB AG | [FA]GFED=C | z =cBAGF | z FED^CB, | z e dc B!mf!G | %170
 [EF]2 [EF]2 [EF]2 |[K:bass] z2 .[F,B,]2 .[F,B,]2 | z2 .[F,B,]2 .[F,B,]2 | %173
 z2 .[E,G,B,]2 .[E,G,B,]2 | z2 .[E,G,B,]2 .[E,G,B,]2 | z2 .[C,F,]2 .[C,F,]2 | %176
 z2 .[C,F,^A,]2 .[C,F,A,]2 | z2 .[B,,G,]2 .[B,,G,]2 | z2 .[B,,G,]2 .[B,,G,]2 | z6 | z6 | z6 | z6 | %183
 z6 | z6 | z2 .[D,F,]2 .[D,F,]2 | .[D,F,] z z2 z2 | z2 .[F,B,]2 .[F,B,]2 | z2 .[F,B,]2 .[F,B,]2 | %189
 z2 .[E,G,B,]2 .[E,G,B,]2 | z2 .[E,G,B,]2 .[E,G,B,]2 | z2 .[C,F,]2 .[C,F,]2 | %192
 z2 .[C,F,^A,]2 .[C,F,A,]2 | z2 .[B,,G,]2 .[B,,G,]2 | z2 .[B,,G,]2 .[B,,G,]2 | z2 .F,2 .F,2 | %196
 z2 .F,2 .F,2 | z2 .G,2 .G,2 | z2 .G,2 .G,2 | z2 .[B,D]2 .[B,D]2 | z2 .[^A,C]2 .A,2 | %201
 z2 .[F,B,]2 .[F,B,]2 | .[F,B,] z z2 z2 | z2 [A,=CE]2 [A,CE]2 | z2 [D,A,=C]2 [D,A,]2 | %205
 z2 [G,B,D]2 [G,B,D]2 | z2 [G,B,]2 [G,B,]2 | z6 | z2 .[E,A,]2 .[E,A,^C]2 | z2 .[A,DF]2 .[A,DF]2 | %210
 z2 .[G,D]2 .[G,^D]2 | z2 .[A,=CE]2 .[A,CE]2 | z2 .[D,A,=C]2 .[D,A,]2 | z2 .[G,B,D]2 .[G,B,D]2 | %214
 z2 .[G,B,D]2 .[G,B,D]2 | .[G,^C]2 .[G,C]2 z2 | z2 .[G,B,]2 .[G,B,]2 |[K:treble] E4 E2 | E2 E4 | %219
 B2 E2 B2 | E2 B2 E2 | (3BcB B z z2 | z6 | z6 | z6 |!p! !>!A,2!<(! !>!D2 !>![DF]2!<)! | %226
!mp!!>(! !>![CEG]4- [CEG]>!p![DF]!>)! | [DF]6- | [DF]6 |!p! !>!A,2!<(! !>!D2 !>![DF]2!<)! | %230
!mp! !>![CEG]2!>(! !>![DF]7/2 [CE]/!>)! | !>![DA]4 D2 | z2!p! A,B,CD | ^DFDF E!ped! z | %234
 z2"^cresc." =C!ped-up!=D^DE | FAFA G!ped! z | z2 E!ped-up!FGA | ^Ac BA Bc | ed cd BG | F4 E2- | %240
 E A_B=B=c^c | d z!<(! !>!D2 !>![DF]2!<)! |!mp!!>(! !>![CEG]4- [CEG]>!p![DF]!>)! | [DF]6- | [DF]6 | %245
!p! !>!A,2 !>!D2 !>![DF]2 | [CEG]2 [CF]7/2 [CE]/ | [DA]4 D2 | z2!p! DEF^G | AB^GB A z | %250
 z2"^cresc." ^^F^GAB | cd^Bd c z | z2 ^G4 | z2 C4 | C4 ^B,2 | ^B,2 C2 C2 | C A^GABc |: d4 A2 | %258
 [CE]4 [B,D]2 | [B,D]4 E2 | (5:4:5[Ac]/d/c/d/c/ [A^B] z .[Ac] z | [DG]4 .[DG]2 | [CF]4 .[CE]2 | %263
 [CE]4 .F2 | (5:4:5d/e/d/e/d/ c z [Fd] z | [DF]4 A2 | [CE]4 [B,D]2 | [B,D]4 E2 | %268
 (5:4:5[Ac]/d/c/d/c/ [A^B] z .[Ac] z |1 [DG]4 .[DG]2 | [^DG]4 .[DG]2 | [EG]4 .[EG]2 | %272
 .[EA]!ped! A^GABc!ped-up! :|2 [AB]4 [AB]2 || [AB]4 [A^B]2 | [GAc] z EF [DEG]^G | .[CEA] ^GA^ABc | %277
 d6 | _B4- B>A | A c.=B.ABA | .F.D.F.A .B.d | f6 | _B4- B>A | A e.d.A.F.A | [=FA=c] z!p! FG^GA | %285
 _B=cAc B z | z!<(! ^GA_B=c^c!<)! |!mp! d!>(!_e^ce d z!>)! | z E=FG^GA | _B=cAc B z | %290
 z!<(! ^GA_B=c^c!<)! |!mp! d!>(!_e^ce d z!>)! | z E=FG^GA | .=F2"^cresc. poco a poco" .F2 z2 | %294
 .[_E=F]2 .[EF]2 z2 | .[D=F]2 .[DF]2 z2 | =E=F^DFEG | ^FGFA GA |G_B ABA=c | =B=cBd ^cd | %300
 ce d=f eg | =f z [A=cf]2 [cfa]2 | [_dg_b]4 [dgb]>[=c=fa] | [=c=fa]2 dcdc | A=FA=c d=f | %305
 [=FA=c]2 [Ac=f]2 [cfa]2 | [_B_deg]4 [Bdeg]>[=c=fa] | [=c=fa]2 fcAc | [GA^c] A^GABc | %309
 [Ad]4 .[Ad]2 | [^Ad]4 .[Ad]2 |: cB^AB z2 | (3BcB ^A z B z | z2 BB B2 | z2 cc c2 | [FB]A^GA z2 | %316
 (3ABA ^G z .A z | [=F_B]4 [FB]2 | [E^G]4 E2 | [EA]2 E2 [FAd]2 | [FA]2 [Gd]4 | [=F^Gd]4 [^FAd]2- | %322
 [FAd]2 [G_Bd]4 | [=F^G=Bd]4 [EA=c]2- | [EAc]2 [_EGA^c]4 |1 z6 | z6 :|2 .[FAd] z (3cdc A z || %328
 (3BcB G z .[EGAc] z | [FAd] z (3cdc A z | (3BcB G z .[EGAc] z | .[FAd] z (3cdc [GB] z | %332
 .[FAd] z (3cdc [GB] z | .[FAd] z (3cdc [GB] z | .[FAd] z (3cdc [GB] z | %335
 !>![DFA]2 !>![FAd]2 !>![Adf]2 | !>![dg]2 !>![cea]7/2 [FAd]/ | !>![FAd]2 !>![DFA]2 !>![DFA]2 | %338
 !>![DFA] z z2 z2 |] %339
V:3
 x6 | x6 | x6 | x6 | x6 | x6 | x6 | x6 | x6 | x6 | x6 | x6 | x6 | x6 | x6 | x6 | x6 | x6 | x6 | %19
 x6 | x6 | x6 |!8va(! x6 | x6!8va)! | x6 | x6 | x6 | x11/2!8va(! x/ | x6!8va)! | x6 | x6 | x6 | %32
 x6 || x6 | x6 | x6 | x6 | x6 | x6 | x6 | x6 | x6 | x6 | x6 | x6 | x6 | x6 | x6 | x6 | x6 | x6 | %51
 x6 | x6 | x6 | x6 | x6 | x6 | x6 | x6 | x6 | x6 | x6 | x6 | x6 | x6 | x6 | x6 | x6 | x6 |: x6 | %70
 x6 | x6 | x6 | x6 | x6 | x6 | x6 | x6 | x6 | x6 | x6 |1 x6 | x6 | x6 | x6 :|2 x6 || x6 | x6 | x6 | %89
 x6 | x6 | x6 | x6 | x6 | x6 | x6 | x6 | x6 | x6 | x6 | x6 | x6 | x6 | x6 | x6 | x6 | x6 | x6 | %108
 x6 | x6 | x6 | x6 | x6 | x6 | x6 | x6 | x6 | x6 | x6 | x6 | x6 |: x6 | x6 | x6 | x6 | x6 | x6 | %127
 x6 | x6 | x6 | x6 | x6 | x6 |1 x6 | x6 | x6 | x6 :|2 x6 || x6 | x6 | x6 | x6 | x6 | x6 | x6 | x6 | %146
 g z z2 ga | x6 | x6 | x6 | x6 | x6 | x6 | x6 | x6 | x6 | x6 | x6 | x6 | x6 | x6 | x6 | g4 ga | %163
 x6 | x6 | x6 | x6 | x6 | x6 | x6 | x6 | x2 Bd db | x2 Bd db | x2 Bg gb | x2 Bg gb | x2 ce ec' | %176
 x2 c^a ac' | x2 Bg gb | x2 Bg gb | x2 Bf fb | x2 Fd df | x2 GB Bg | x2 GB Bg | x2 Fe ef | %184
 x2 Fe ef | x2 Fd df | x6 | x2 Bd db | x2 Bd db | x2 Bg gb | x2 Bg gb | x2 ce ec' | x2 c^a ac' | %193
 x2 Bg gb | x2 Bg gb | x2 Ff fb | x2 Bf fb | x2 Bg gb | x2 Bg gb | x2 Bd db | x2 ^Ac c^a | %201
 x2 Bf fb | x6 | x6 | x6 | x6 | x6 | x6 | b4 g z | fgab[a=c']^c' | x6 | x6 | x6 | x6 | x6 | x6 | %216
 x6 | x6 | x6 | x6 | x6 | x6 | x6 | x6 | x6 | x6 | x6 | x6 | x6 | x6 | x6 | x6 | x6 | x6 | x6 | %235
 x6 | x6 | x6 | x6 | x6 | x6 | x6 | x6 | x6 | x6 | x6 | x6 | x6 | x6 | x6 | x6 | x6 | x6 | x6 | %254
 x6 | x6 | x6 |: x6 | x6 | x6 | x6 | x6 | x6 | x6 | x6 | x6 | x6 | x6 | x6 |1 x6 | x6 | x6 | x6 :|2 %273
 x6 || x6 | x6 | x6 | x6 | x6 | x6 | x6 | x6 | x6 | x6 | x6 | x6 | x6 | x6 | x6 | x6 | x6 | x6 | %292
 x6 | x6 | x6 | x6 | x6 | x6 | x6 | x6 | x6 | x6 | x6 | x6 | x6 |!8va(! x6 | x6 | x3!8va)! x3 | %308
 x6 | x6 | x6 |: x6 | x6 | x6 | x6 | x6 | x6 | x6 | x6 | x6 | x6 | x6 | x6 | x6 | x6 |1 x6 | x6 :|2 %327
 x6 || x6 | x6 | x6 | x6 | x6 | x6 | x6 | x6 |!8va(! x11/2!8va)! x/ | x6 | x6 |] %339
V:4
 x6 | x6 | x6 | x6 | x6 | x6 | x6 | x6 | x6 | x6 | x6 | x6 | x6 | x6 | x6 | x6 | x6 | x6 | x6 | %19
 x6 | x6 | x6 | x6 | x6 | x6 | x6 | x2[K:bass] x4 | x6 |[K:treble] x6 | x6 | x6 | x6 | x6 || x6 | %34
 x6 | x6 | x6 | x6 | x6 | x6 | x6 | x6 | x6 | x6 | x6 | x6 | x6 | x6 | x6 | x6 | x6 | x6 | x6 | %53
 x6 | x6 | x6 | x6 | x6 | x6 | x6 | x6 | x6 | x6 | x6 | x6 | x6 | x6 | x6 | x6 |: x6 | x6 | x6 | %72
 x6 | x6 | x6 | x6 | x6 | x6 | x6 | x6 | x6 |1 x6 | x6 | x6 | x6 :|2 x6 || x6 | x6 | x6 | x6 | x6 | %91
 x6 | x6 | x6 | x6 | x6 | x6 | x6 | x6 | x6 | x6 | x6 | x6 | x6 | x6 | x6 | x6 | x6 | x6 | x6 | %110
 x6 | x6 | x6 | x6 | x6 | x6 | x6 | x6 | x6 | x6 | x6 |: x6 | x6 | x6 | x6 | x6 | x6 | x6 | x6 | %129
 x6 | x6 | x6 | x6 |1 x6 | x6 | x6 | x6 :|2 x6 || x6 | x6 | x6 | x6 | x6 | x6 | x6 | x6 | x6 | x6 | %148
 x6 | x6 | x6 | x6 | x6 | x6 | x6 | x6 | x6 | x6 | x6 | x6 | x6 | x6 | x6 | x6 | x6 | x6 | x6 | %167
 x6 | G4 x2 | x6 | x6 |[K:bass] x6 | x6 | x6 | x6 | x6 | x6 | x6 | x6 | x6 | x6 | x6 | x6 | x6 | %184
 x6 | x6 | x6 | x6 | x6 | x6 | x6 | x6 | x6 | x6 | x6 | x6 | x6 | x6 | x6 | x6 | x6 | x6 | x6 | %203
 x6 | x6 | x6 | x6 | x6 | x6 | x6 | x6 | x6 | x6 | x6 | x6 | x6 | x6 |[K:treble] x6 | x6 | x6 | %220
 x6 | x6 | x6 | x6 | x6 | x6 | x6 | x6 | x6 | x6 | x6 | x6 | x6 | x6 | x6 | x6 | x6 | x6 | x6 | %239
 x6 | x6 | x6 | x6 | x6 | x6 | x6 | x6 | x6 | x6 | x6 | x6 | x6 | x6 | x6 | x6 | x6 | x6 |: x6 | %258
 x6 | x6 | x6 | x6 | x6 | x6 | x6 | x6 | x6 | x6 | x6 |1 x6 | x6 | x6 | x6 :|2 x6 || x6 | x6 | x6 | %277
 x6 | x6 | x6 | x6 | x6 | x6 | x6 | x6 | x6 | x6 | x6 | x6 | x6 | x6 | x6 | x6 | x6 | x6 | x6 | %296
 x6 | x6 | x6 | x6 | x6 | x6 | x6 | x6 | x6 | x6 | x6 | x6 | x6 | x6 | x6 |: x6 | x6 | G4 G2 | %314
 ^G4 G2 | x6 | x6 | x6 | x6 | x6 | x6 | x6 | x6 | x6 | x6 |1 x6 | x6 :|2 x6 || x6 | x6 | x6 | x6 | %332
 x6 | x6 | x6 | x6 | x6 | x6 | x6 |] %339
V:5
!f! !>![E,A,C]2 !>![E,A,C]2 !>![E,A,C]2 |!sfz! !>![A,^B,]4!f! !>![A,C]2 | %2
!ff! [E,A,C]2 C,/E,/A,/C/ z2 | z2 z2 (6:4:6A,/E,/C,/[I:staff +1]A,,/E,,/C,,/ | %4
!f![I:staff -1] [E,A,C]2 [E,A,C]2 [E,A,C]2 |!sfz! !>![A,^B,^D]4!f! !>![A,CE]2 | %6
!ff! !>![E,A,CE]2 C,/E,/A,/C/ z2 | z2 z2 (7:4:7C/A,/E,/C,/[I:staff +1]A,,/E,,/C,,/ | %8
!f![I:staff -1] !>![E,A,C]2 !>![E,A,C]2 !>![E,A,C]2 |!sfz! !>![F,B,^D]4!f! !>![F,B,D]2 | %10
!p! !>![E,A,B,=D]4 !>![E,G,B,D]2 | !>![A,B,]4 !>![A,B,]2 | !>![G,B,]4 !>![G,B,]2 | %13
 !>![E,^G,]4 !>![E,G,]2 | !>![E,^G,]2 !>![E,A,]2 !>![D,=F,G,]2 | %15
!ff! [C,=G,A,]/E,/G,/A,/ E,/G,/A,/C/ G,/A,/C/E/ | A,/C/E/G/ G,/A,/C/E/ E,/G,/A,/C/ | %17
 C,/E,/G,/A,/ E,/G,/A,/C/ G,/A,/C/E/ |[K:treble] C/E/G/A/ A,/C/E/G/ G,/A,/C/E/ | %19
[K:bass]!ff! E,/G,/A,/C/ G,/A,/C/E/[K:treble] A,/C/E/G/ | C/E/G/B/ C/E/G/A/ E/G/A/d/ | %21
 E/G/A/c/ G/A/c/f/ G/A/c/e/ | A/c/e/g/ A/c/e/g/ c/e/g/b/ |!ff! c/e/g/a/ A/c/e/g/ G/A/c/e/ | %24
 E/G/A/c/ C/E/G/A/ A,/C/E/G/ |[K:bass] G,/A,/C/E/ E,/G,/A,/C/ C,/E,/G,/A,/ | %26
 A,,/C,/E,/G,/ G,,/A,,/C,/E,/ E,,/G,,/A,,/C,/ | z2 z2 A,, z |[K:treble] z2!f! [EA]2 [CE]2 | %29
[K:bass] [A,C]2 [E,A,]2 [C,E,A,]2 |!>(! [E,A,]6 | [=F,^G,B,]6!>)! |!p! !fermata![=G,A,]6 || %33
!pp! z2 .[D,F,A,]2 .[D,F,A,]2 | z2 .[D,F,A,]2 .[D,F,A,]2 | z2 .[D,F,A,]2 .[D,F,A,]2 | %36
 z2 .[D,F,A,]2 .[D,F,A,]2 |!p! [D,F,]2 [D,F,A,]2 [D,F,A,]2 | !>!_B,4- B,>A, | !>!A,6- | A,6 | %41
 [D,F,]2 [D,F,A,]2 [D,F,A,]2 | !>!_B,2 !>!B,7/2 B,/ | !>!A,4 x2 |!p! z2 .F,2 .[F,A,]2 | %45
!<(! z2 .[E,A,]2 .[E,A,]2 | z2 .[E,G,^A,]2 .[E,G,A,]2 | z2 .[E,G,B,]2 .[E,G,B,]2 | %48
 z2 .[E,G,B,]2 .[E,G,B,]2 | z2 .[G,B,E]2 .[G,B,E]2 | z2!<)!!mp! E,4 |!>(! z2 [^G,D]2 [G,D]2!>)! | %52
!p! .[E,=G,C] z z2 z2 |!p! [D,F,]2 [D,F,A,]2 [D,F,A,]2 | !>!_B,4- B,>A, | !>!A,6- | A,6 | %57
 z2 [D,F,A,]2 [D,F,A,]2 | !>!_B,2 !>!B,7/2 B,/ | !>!A,4 x2 | z2!p! .[F,A,^B,]2 .[F,A,B,]2 | %61
 z2!<(! .[F,A,C]2 .[F,A,C]2 | z2 .[^E,^G,C]2 .[E,G,C]2 | z2 .[F,A,C]2 .[F,A,C]2 | %64
 z2 .[^E,B,C]2 .[E,B,C]2!<)! |!f! z2 !>![F,A,C]4 | !>![F,A,C]4 !>![F,A,^B,]2- | %67
 [F,A,B,]2 [F,A,C]2 [^E,=B,C]2 | .[F,A,C]!mf! A,!<(!B,CDE!<)! |:!f! [DF]4 C2 | [CE]4 B,2 | %71
 B,4 B,2 |!f! z2 .[E,G,]2 .[E,G,]2 | z2 .[D,G,]2 .[D,G,]2 | z2 .[G,A,]2 .[G,A,]2 | %75
 z2 .[F,A,]2 .[F,A,]2 | z2 .[D,F,A,]2 .[D,F,A,]2 | z2 .[F,A,]2 .[F,A,]2 | z2 .[F,A,]2 .[F,A,]2 | %79
 z2 .[G,A,]2 .[G,A,]2 | z2 .[G,A,]2 .[G,A,]2 |1!f!!<(! z2 .[D,G,]2 .[D,G,]2 | %82
 z2 .[^D,G,]2 .[D,G,]2 | z2 .[E,G,]2 .[E,G,]2!<)! |!sfz! .[E,A,]!mf!!<(! A,B,CDE!<)! :|2 %85
!f! z2 .[A,B,D]2 .[A,B,D]2 ||!<(! z2 .[A,B,^D]2 .[A,^B,D]2!<)! | .[A,CE] z!ff! E,F,[=G,=D]^G, | %88
 [A,C] z z2!mf! [C,G,]2 |!p!!<(! [D,F,]2 [D,F,A,]2 [D,F,A,]2!<)! |!mp! _B,4 B,>A, |!p! A,6 | A,6 | %93
 [D,F,]2 [D,F,A,]2 [D,F,A,]2 | !>!_B,2 !>!B,7/2 B,/ | !>!A,4 x2 | z2 .F,2 .[F,A,]2 | %97
 z2!<(! .[E,A,]2 .[E,A,]2 | z2 .[E,G,^A,]2 .[E,G,A,]2 | z2 .[E,G,B,]2 .[E,G,B,]2!<)! | %100
!mf! z2 [E,G,B,]2 [E,G,B,]2 |[K:treble] z2 .[G,B,E]2 .[G,B,E]2 |!f! z2 .[B,EG]2 .[G,B,E]2 | %103
[K:bass]!>(! E,6!>)! |!p! .[E,=G,C] z z2 z2 |!p!!<(! [D,F,]2 [D,F,A,]2 [D,F,A,]2!<)! | %106
!mp! _B,4 B,>A, |!p!!<(! A,6!<)! |!mp!!>(! z2 .[D,F,A,]2 .[D,F,A,]2!>)! | %109
!p! [D,F,]2 [D,F,A,]2 [D,F,A,]2 | !>!_B,2 !>!B,7/2 B,/ | .[D,F,A,]2 .[D,F,A,]2 .[D,F,A,]2 | %112
 z2!p! .[F,A,^B,]2 .[F,A,B,]2 | z2!<(! .[F,A,C]2 .[F,A,C]2 | z2 .[^E,^G,C]2 .[E,G,C]2 | %115
 z2 .[F,A,C]2 .[F,A,C]2 | z2 .[^E,B,C]2 .[E,B,C]2!<)! |!f! z2 !>![F,A,C]4 | %118
 !>![F,A,C]4 !>![F,A,^B,]2- | [F,A,B,]2 [F,A,C]2 [^E,=B,C]2 | .[F,A,C]!mf! A,!<(!B,CDE!<)! |: %121
!ff! [DF]2!f! .[F,A,]2 .[F,A,]2 | z2 .[F,A,]2 .[F,A,]2 | z2 .[E,G,]2 .[E,G,]2 | %124
 z2 .[E,G,]2 .[E,G,]2 |!f! z2 .[D,G,]2 .[D,G,]2 | z2 .[G,A,]2 .[E,G,A,]2 | z2 .[F,A,]2 .[F,A,]2 | %128
 z2 .[D,A,]2 .[D,A,]2 |!f! z2 .[F,A,]2 .[F,A,]2 | z2 .[F,A,]2 .[F,A,]2 | z2 .[E,G,]2 .[E,G,]2 | %132
 z2 .[E,G,]2 .[E,G,]2 |1 z2 .[D,G,]2 .[D,G,]2 |!<(! z2 .[^D,G,]2 .[D,G,]2 | %135
 z2 .[E,G,]2 .[E,G,]2!<)! |!sfz! [E,G,A,]!mf!!<(! A,B,CDE!<)! :|2!f! z2 .[A,B,]2 .[A,B,]2 || %138
!<(! z2 .[G,A,]2 .[A,^B,]2!<)! |!sfz! .[G,A,C] z A,^A,!ff![E,G,=B,]C | [F,=A,D] z z2 z2 |!p! E6 | %142
 D2 z2 z2 | D6 | E2 z2 z2 | E6 |!p! ^C6 | D6 |[K:treble] z2 G2 G2 | [=CE]6 |[K:bass] D6 | G,6 | %152
 z2 .[G,B,]2 ^CB, | [D,F,B,] z!f! .[F,B,D]2 .[D,F,B,]2 | F,G,^G,A,B,^A, | %155
 .[F,B,]2 .[D,F,B,]2 [F,B,D]2 | [B,DF] z z2 z2 |!p! E6 | D2 z2 z2 | .G,2 .[G,B,D]2 .[G,B,D]2 | %160
 .[G,B,]2 .[E,G,B,]2 .[E,G,B,]2 |!p! =C6 | ^C6 | D6 | D4 ^D2 | E6 | D2 .[A,=C]2 .[D,F,A,]2 | %167
 .G,2 .[D,G,B,]2 .[G,B,D]2 |!<(! z2 .[G,B,]2 .[E,G,]2!<)! | %169
!mp! .[B,,D,F,] z!<(! .[F,B,D]2 .[F,B,D]2 | F,G,^G,A,B,^A,!<)! |[K:treble]!f! F6 | G6 | F6 | %174
{/EF} E2 ^D2 E2 | G4!f! F2 | F4 E2 | E4!f! D2 | D2 [B,C]2 [G,B,]2 |[K:bass] F4!f! B,2 | %180
 B,2 ^A,2 B,2 | D4!f! G,2 |!mf!!<(! G,2 B,2 [G,D]2!<)! |!f!!>(! D4!mf! ^A,2!>)! | %184
!<(! F,2 ^A,2!f! [A,D]2!<)! |!>(! C4!mf! B,2-!>)! |!<(! B,^A,B,CDE!<)! |[K:treble]!f! F6 | G6 | %189
 F6 |{/EF} E2 ^D2 E2 | G4 F2 | F4 E2 | E4 D2 |{/DE} D2 [B,C]2 [B,D]2 | B4 B,2 | B,2 D2 [B,F]2 | %197
 B4 B,2 |!<(! B,2 D2 G2!<)! | B2 z2 F2 | G2 F3!>(! C | E4 D2-!>)! | D[K:bass]!p!CB,A,G,F, | %203
 .F,2 z2 z2 |[K:treble]!p! AGFED=C | B, z z2 z2 | GFEFED | =C z[K:bass]!p! .[E,A,=C]2 .[E,A,C]2 | %208
[K:treble]!<(! ^CDEFGA!<)! |!mp! B4 A2 |!p! GFGAGF | E z z2 A2- | AGFED=C | B, z z2 G2 | %214
 d=cBA G^F | GFED^C!<(!B, | [DB]AGFED!<)! |[K:bass]!f! [E,G,A,]4 [E,G,B,]2 | [E,G,B,]2 [E,G,C]4 | %219
 [G,A,]4 [E,G,B,]2- | [E,G,B,]2 [E,G,C]4 |[K:treble]!ff! [CG] z [CG] z[K:bass]!p! A,2 | %222
 C,2!<(! A,2 D,2 | A,2 ^D,2 A,2 | E,2 A,2 =F,2!<)! |!mf! ^F,2 [D,F,A,]2 [D,F,A,]2 | %226
 !>!_B,4- B,>A, | !>!A,6- |!p! A,6 |!<(! [D,F,]2 [D,F,A,]2 [D,F,A,]2 | %230
 !>!_B,2!<)!!mp! !>!B,7/2 B,/ | A,4 A,2 | z2!mf! .F,2 .[F,A,]2 | z2 .[E,A,]2 .[E,A,]2 | %234
 z2 .[E,G,^A,]2 .[E,G,A,]2 | z2 .[E,G,B,]2 .[E,G,B,]2 | z2 .[E,G,B,]2 .[E,G,B,]2 | %237
 z2 .[G,B,E]2 .[G,B,E]2 |!f! z2!<(! [E,G,E]2 [E,G,E]2 | z2 [E,^G,D]2 [E,G,D]2!<)! | %240
!ff! [E,=G,D]!>(! _EDCB,_B,!>)! |!p! [D,F,A,]2!<(! [D,F,A,]2 [D,F,A,]2!<)! |!mp! !>!_B,4- B,>A, | %243
!p! !>!A,6- |!p! A,6 |!<(! [D,F,]2 [D,F,A,]2 [D,F,A,]2 | !>!_B,2!<)!!mp! !>!B,7/2 B,/ | %247
!p! A,4 A,2 | [D,F,A,]2!mf! [F,A,^B,]2 [F,A,B,]2 | z2 [F,A,C]2 [F,A,C]2 | z2 [^E,^G,C]2 [E,G,C]2 | %251
 z2!<(! .[F,A,C]2 .[F,A,C]2 | z2 .[^E,B,C]2 .[E,B,C]2!<)! |!f! z2 [F,A,]4 | [F,A,]4 [F,A,]2- | %255
 [F,A,]2 .[F,A,]2 [^E,B,]2 | [F,A,] A,B,CD[C=E] |:!f! [DF]2 [F,A,]2 [F,A,C]2 | %258
 z2 .[F,A,]2 .[D,F,A,]2 | z2 .[E,G,]2 .[E,G,]2 | z2 [E,G,A,^B,] z [E,G,A,C] z | %261
!f! z2 .[E,G,]2 .[E,G,]2 | z2 .[G,A,]2 .[G,A,]2 | z2 .[F,A,]2 .[F,A,]2 | z2 .[D,F,A,]2 .[D,F,A,]2 | %265
 z2 .[F,A,]2 .[F,A,]2 | z2 .[F,A,]2 .[F,A,]2 | z2 .[E,G,]2 .[E,G,]2 | z2 .[E,G,^B,] z .[E,G,C] z |1 %269
 z2 .[D,G,]2 .[D,G,]2 | z2 .[^D,G,]2 .[D,G,]2 | z2 .[E,G,]2 .[E,G,]2 | .[E,G,A,] A,B,CD[CE] :|2 %273
!f!!<(! F,6 || =F,6!<)! |!sfz! .[E,G,A,C] z!mf! E,F,[D,E,G,]^G, |!<(! [C,E,A,] ^G,A,^A,B,C!<)! | %277
!ff! [F,A,]2 [A,D]2 [DF]2 |[K:treble]!sfz! [_B,CEG]4- [B,CEG]>[A,DF] | [A,DF]6 | %280
[K:bass] z2 [D,F,A,] z [D,F,A,D] z |!ff! [F,A,]2 [A,D]2 [DF]2 | %282
[K:treble]!sfz! [_B,CEG]4- [B,CEG]>[A,DF] | [A,DF]2 [DF] z [A,D] z | %284
[K:bass]!sfz! [=F,A,=C] z z2 z2 |!pp! z2 [=F,_B,=F]2 [F,B,F]2 | %286
[K:treble] z2 [=F,A,_E=F]2 [F,A,EF]2 | z2 [=F,_B,D=F]2 [F,B,DF]2 | %288
[K:bass] z2 [=F,A,=C]2 [F,A,C=F]2 | z2 [=F,_B,=F]2 [F,B,F]2 |[K:treble] z2 [=F,A,_E=F]2 [F,A,EF]2 | %291
 z2 [=F,_B,D=F]2 [F,B,DF]2 |[K:bass] z2 [=F,A,=C] z z2 |!pp! .[=F,B,]2 .[F,B,]2 z2 | %294
!<(! .[=F,=C]2 .[F,C]2 z2 | .[D,=F,_B,]2 .[D,F,B,]2 z2 | .[=C,E,G,=C]2 .[C,E,G,C]2 z2!<)! | %297
!mf! [D,A,=CD]4 [D,G,_B,D]2- | [D,G,B,D]2 [D,A,D]4 |!<(! [D,G,=B,D]4[K:treble] [A,EGA]2- | %300
 [A,EGA]2 [A,D=FA]2 [A,CEA]2!<)! |!ff! [A,=C=FA] z [A,CF]2 [CFA]2 | %302
!sfz! [_DG_B]4- [DGB]>[=C=FA]!ff! | [=C=FA]2 .[A,CFA]2 .[A,CFA]2 | z2 .[A,=C]2 .[A,C=F]2 | %305
 [=F,A,=C]2!ff! [A,C=F]2 [CFA]2 | [_B,_DEG]4- [B,DEG]>[=C=FA] | [=C=FA]2 .[A,CFA]2 .[A,CF]2 | %308
[K:bass]!ff! [G,A,^C]!mf!!<(! .A,.^G,.A,.B,.C!<)! |!ff! .[D,A,D]2 .[D,D].[D,D] .[D,A,D]2 | %310
 .[D,^A,D]2 .[D,D].[D,D] .[D,A,D]2 |: [D,B,D] z[K:treble] .[EG].[EG] .[EG] z | %312
 [EG] z [EG] z [EG] z |[K:bass] [G,C]4 B,2 | [^G,C]4 C2 | [A,D]2 .[A,D].[A,D] .[A,D] z | %316
[K:treble] [DF] z [DF] z [DF] z |[K:bass] =F,6 | E,6 | [E,A,]4!p! [D,F,A,D]2- | %320
 [D,F,A,D]2 [D,G,D]4 |!<(! [D,=F,^G,D]4 [D,^F,A,D]2- | [D,F,A,D]2 [D,=G,_B,D]4 | %323
 [=F,^G,=B,D]4 [E,A,=C]2- | [E,A,C]2 [^C,G,A,^C]4!<)! |1!ff! [D,F,A,D]2 [D,D][D,D] [D,D]2 | %326
 [D,F,^A,D]2 [D,D][D,D] [D,D]2 :|2 [D,F,A,D] z [F,A,C]4 || [D,G,B,]4 .[E,G,A,C] z | %329
 .[D,F,A,D] z [F,A,C]4 | [D,G,B,]4 .[E,G,A,C] z | .[D,F,A,D] z .[D,A,CD] z .[D,G,B,D] z | %332
 .[D,F,A,D] z .[D,A,C] z [D,G,B,] z | [D,F,A,D] z [D,A,C] z [D,G,B,] z | %334
 [D,F,A,D] z [D,A,C] z [D,G,B,] z | !>![D,F,A,]2 !>![F,A,D]2 !>![A,DF]2 | %336
[K:treble] !>![G,DG]2 !>![A,CEA]7/2[K:bass] [F,A,D]/ | !>![F,A,D]2 !>!A,2 !>!F,2 | %338
 !>![A,,D,F,A,] z z2 z2 |] %339
V:6
 !>!A,,2 !>!A,,2 !>!A,,2 | !>![A,,^D,]4 !>![A,,E,]2 | A,,,/!ped!C,,/E,,/A,,/ z2 z2 | %3
 z2 z2 x2!ped-up! | A,,, z A,,2 A,,2 | !>!A,,4 !>!A,,2 | A,,,/!ped!C,,/E,,/A,,/ z2 z2 | %7
 z2 x2 z2!ped-up! | !>!A,,,2 !>!A,,2 !>!A,,2 | !>![A,,^D,]4 [A,,D,]2 | %10
!ped! !///-!A,,,3 A,,3!ped-up! |!ped! !///-!A,,,3 A,,3!ped-up! |!ped! !///-!A,,,3 A,,3!ped-up! | %13
!ped! !///-!A,,,3 A,,3!ped-up! |!ped! !///-!A,,,3 A,,3!ped-up! |!ped! .A,,, z z4!ped-up! | %16
!ped! z6!ped-up! |!ped! z6!ped-up! |!ped! z6!ped-up! |!ped! z6!ped-up! |!ped! z6!ped-up! | %21
!ped! z6!ped-up! |!ped! z6!ped-up! |!ped! z6!ped-up! |!ped! z6!ped-up! |!ped! z6!ped-up! | %26
!ped! z6!ped-up! |!ff!!ped! C,,/E,,/G,,/A,,/ A,,,/C,,/E,,/G,,/!ped-up! A,,, z |"^rit." z6 | z6 | %30
 [A,,C,]6 | [A,,D,]6 | !fermata![A,,E,]6 || .D,,2 z2 z2 | .D,,2 z2 z2 | .D,,2 z2 z2 | .D,,2 z2 z2 | %37
 .D,,2 z2 z2 | .D,,2 z2 z2 | .D,,2 z2 z2 | .D,,2 z2 z2 | .D,,2 z2 z2 | D,,2 z2 z2 | D,,2 z2 z2 | %44
 D,6 |"^poco cresc." C,6 | =C,6 | B,,6 | G,,6 | E,,6 | [B,,,B,,]6 | [_B,,,_B,,]6 | [A,,,A,,] z z4 | %53
 .D,,2 z2 z2 | .D,,2 z2 z2 | .D,,2 z2 z2 | .D,,2 z2 z2 | .D,,2 z2 z2 | .D,,2 z2 z2 | .D,,2 z2 z2 | %60
 D,6 |"^cresc." C,6 | B,,6 | A,,6 | ^G,,6 | F,,4 !>![=E,,=E,]2- | [E,,E,]2 !>![D,,D,]4 | %67
 !>![C,,C,]6 | .[F,,C,] z ^G,A,B,C |: [D,,D,]2 z2 z2 | [A,,,A,,]2 z2 z2 | [E,,E,]2 z2 z2 | %72
 [A,,,A,,]2 z2 z2 | [B,,,B,,]2 z2 z2 | [A,,,A,,]2 z2 z2 | [D,,D,]2 z2 z2 | [A,,,A,,]2 z2 z2 | %77
 [D,,D,]2 z2 z2 | [A,,,A,,]2 z2 z2 | [E,,E,]2 z2 z2 | [A,,,A,,]2 z2 z2 |1 [^A,,,^A,,]2 z2 z2 | %82
 [B,,,B,,]2 z2 z2 | [=C,,=C,]2 z2 z2 | .[^C,,^C,]!ped! z ^G,A,B,C!ped-up! :|2 .[F,,F,]2 z4 || %86
 [=F,,=F,]2 z2 z2 | [E,,E,] z z2 [E,,E,] z | [A,,E,] z z2 z2 | D,,2 z2 z2 | D,,2 z2 z2 | %91
 D,,2 z2 z2 | D,,2 z2 z2 | .D,,2 z2 z2 | .D,,2 z2 z2 | .D,,2 z2 z2 | [D,,D,]2 z2 z2 | %97
"^poco cresc." C,6 | =C,6 | B,,6 | G,,6 | E,6 | B,,6 | [_B,,,_B,,]6 | [A,,,A,,] z z2 z2 | %105
 D,,2 z2 z2 | D,,2 z2 z2 | .D,,2 z2 z2 | .D,,2 z2 z2 | .D,,2 z2 z2 | .D,,2 z2 z2 | .D,,2 z2 z2 | %112
 D,6 |"^cresc." C,6 | B,,6 | A,,6 | ^G,,6 | F,,4 !>![=E,,=E,]2- | [E,,E,]2 !>![D,,D,]4 | %119
 !>![C,,C,]6 | .[F,,C,] z ^G,A,B,C |: D,6 | A,,6 | E,6 | A,,6 | B,,6 | A,,6 | D,6 | A,,6 | D,6 | %130
 A,,6 | .E,,2 z2 z2 | A,,6 |1"^cresc." ^A,,6 | B,,6 | =C,6 | [^C,,^C,] z ^G,A,B,C :|2 F,6 || =F,6 | %139
 [E,,E,] z z2 [A,,,A,,] z | .[D,,D,] z z2 z2 | F,6 | D,6 | .G,,2 z4 | E,6 | .A,,2 z4 | A,,6 | D,6 | %148
 [B,,B,]4 [G,,G,]2 | F,6 | D,6 | G,,2 z2 z2 | E,4 G,,2 | [F,,B,,]"^più" z z2 z2 | %154
 [F,,,F,,] z .F,2 .F,2 | .[B,,D,]2 z2 z2 | z6 | [F,,F,]2 z2 z2 | .[D,,D,]2 z2 z2 | .G,,2 z2 z2 | %160
 .[E,,E,]2 z2 z2 | .A,,2 z2 z2 | .[A,,,A,,]2 z2 z2 | .[D,,D,]2 z2 z2 | .B,,2 z2 .G,,2 | %165
 .[F,,F,]2 z2 z2 | .[D,,D,]2 z2 z2 | .G,,2 z2 z2 | .[E,,E,]2 z2 .G,,2 | F,,2 z2 z2 | %170
 [F,,,F,,] z z2 F,2 | z2!p! .[D,,D,]2 .[D,,D,]2 | z2 .[D,,D,]2 .[D,,D,]2 | z2 .[C,,C,]2 .[C,,C,]2 | %174
 z2 .[B,,,B,,]2 .[B,,,B,,]2 | z2 .[^A,,,^A,,]2 .[A,,,A,,]2 | z2 .[F,,,F,,]2 .[F,,,F,,]2 | %177
 z2 .[G,,,G,,]2 .[G,,,G,,]2 | z2 .[G,,,G,,]2 .[G,,,G,,]2 | z2 .[D,,D,]2 .[D,,D,]2 | %180
 z2 .[D,,D,]2 .[D,,D,]2 | z2 .[E,,E,]2 .[E,,E,]2 | z2 .[E,,E,]2 .[E,,E,]2 | %183
 z2 .[F,,C,F,]2 .[F,,C,F,]2 | z2 .[F,,C,E,]2 .[F,,E,]2 | z2 .[B,,,B,,]2 .[B,,,B,,]2 | %186
 .[B,,,B,,]2 z2 z2 | z2!p! .[D,,D,]2 .[D,,D,]2 | z2 .[D,,D,]2 .[D,,D,]2 | z2 .[C,,C,]2 .[C,,C,]2 | %190
 z2 .[B,,,B,,]2 .[B,,,B,,]2 | z2 .[^A,,,^A,,]2 .[A,,,A,,]2 | z2 .[F,,,F,,]2 .[F,,,F,,]2 | %193
 z2 .[G,,,G,,]2 .[G,,,G,,]2 | z2 .[G,,,G,,]2 .[G,,,G,,]2 | z2 .[D,,D,]2 .[D,,D,]2 | %196
 z2 .[D,,D,]2 .[D,,D,]2 | z2 .[E,,E,]2 .[E,,E,]2 | z2 .[^E,,^E,]2 .[E,,E,]2 | %199
!ff! z2!mp! .[F,,F,]2 .[F,,F,]2 | z2 .[F,,F,]2 .[F,,C,F,]2 | z2!p! .[B,,,B,,]2 .[B,,,B,,]2 | %202
 .[B,,,B,,]2 z4 |!mp! .F,,2 z2 z2 | [D,,D,]2 z2 z2 | .G,,2 z2 z2 | .[E,,E,]2 z2 z2 | .A,,2 z2 z2 | %208
 .[A,,,A,,]2 z2 z2 | .[D,,D,]2!>(! z2 z2!>)! | .[B,,,B,,]2 z2 .[G,,,G,,]2 | .[F,,,F,,]2 z2 z2 | %212
 .[D,,D,]2 z2 z2 | .[G,,G,]2 z2 z2 | [=F,,=F,]6 | [E,,E,]6 | [D,,D,]6 | [C,,C,]4 [B,,,B,,]2 | %218
 [B,,,B,,]2 [A,,,A,,]4 | C,4 B,,2- | B,,2 A,,4 | [A,E] z [A,E] z [G,,A,,]2- | [G,,A,,]2 [F,,B,,]4 | %223
 [=F,,=C,]4 [E,,^C,]2- | [E,,C,]2 [_E,,C,]4 | [D,,D,]2 z4 | .[D,,D,]2 z2 z2 | .[D,,D,]2 z2 z2 | %228
 .[D,,D,]2 z2 z2 | .[D,,D,]2 z2 z2 | .[D,,D,]2 z2 z2 | .[D,,D,]2 z2 z2 | D,6 | C,6 | =C,6 | B,,6 | %236
 G,,6 | [E,,E,]6 | [B,,,B,,]6 | [_B,,,_B,,]6 | .[A,,,A,,] z z2 z2 | .D,,2 z2 z2 | .D,,2 z2 z2 | %243
 .D,,2 z4 | D,,2 z2 z2 | D,,2 z2 z2 | [D,,D,]2 z2 z2 | [D,,D,]2 z2 z2 | D,6 | C,6 | B,,6 | A,,6 | %252
 ^G,,6 | F,,4!<(! [=E,,=E,]2- | [E,,E,]2 [D,,D,]4!<)! |!ff! [C,,C,]4 [C,,C,]2 | %256
 [F,,C,] z ^G,A,B, z |: [D,,D,]6 | [A,,,A,,]6 | .E,,2 z2 z2 | [A,,,A,,]6 | [B,,,B,,]6 | %262
 [A,,,A,,]6 | [D,,D,]6 | [A,,,A,,]6 | [D,,D,]6 | [A,,,A,,]6 | .E,,2 z2 z2 | [A,,,A,,]6 |1 %269
 [^A,,,^A,,]6 | [B,,,B,,]6 | [=C,,=C,]6 | .[^C,,^C,]!ped! z ^G,A,B, z!ped-up! :|2 F,,6 || =F,,6 | %275
 .E,, z z2 E,, z | .[A,,,A,,] z z2 z2 | [D,,D,]2 [D,F,A,]2 [D,F,A,]2 | %278
 [D,,D,]2!f! [D,E,G,]2 [D,E,G,]2 | [D,,D,]2 [D,F,] z [D,F,] z | [D,,D,] z z2 z2 | %281
 [D,,D,]2 [D,F,]2 [D,F,A,]2 | [D,,D,]2!f! [D,E,G,]2 [D,E,G,]2 | [D,,D,]2 [D,A,] z [D,F,] z | %284
 [_E,,_E,] z z2 z2 |!p! D,6 | =C,6 | _B,,6 | _E,6 | D,6 | =C,6 | [_B,,,_B,,]6 | .[_E,,_E,] z z4 | %293
 .[D,,D,]2 .[D,,D,]2 z2 |"^cresc. poco a poco" .[A,,,A,,]2 .[A,,,A,,]2 z2 | %295
 .[_B,,,_B,,]2 .[B,,,B,,]2 z2 | .[_B,,,_B,,]2 .[B,,,B,,]2 z2 | [A,,,A,,]4 [G,,,G,,]2- | %298
 [G,,,G,,]2 [F,,,F,,]4 | [=F,,,=F,,]4!8vb(! [E,,,E,,]2- | [E,,,E,,]2 [D,,,D,,]2 [C,,,C,,]2 | %301
 [=C,,,=C,,] z!8vb)! [=C,=F,]2 [C,F,A,]2 | [=C,,=C,] z .[G,_B,]2 .[G,B,]2 | [=C,,=C,] z z2 z2 | %304
 [=C,,=C,] z .[C,=F,]2 .[C,F,]2 | [=C,,=C,] z z2 z2 | [=C,,=C,] z G, z G, z | [=F,,=F,]2 z2 z2 | %308
 [E,,E,] z z4 | !>![F,,,F,,]4 .[F,,,F,,]2 | !>![F,,,F,,]4 .[F,,,F,,]2 |: [G,,,G,,] z z4 | %312
 [E,G,] z [E,G,] z [E,G,] z | [E,,E,]4 [E,,E,]2 | [^E,,^E,]4 [E,,E,]2 | [F,,F,]2 .F,.F, .F, z | %316
 z6 | [D,,D,]6 | [D,,D,]6 | [C,,C,]4 [=C,,=C,]2- | [C,,C,]2 [B,,,B,,]4 | [_B,,,_B,,]4 [A,,,A,,]2- | %322
 [A,,,A,,]2 [G,,,G,,]4 | [=F,,,=F,,]4 [E,,,E,,]2- | [E,,,E,,]2 [_E,,,_E,,]4 |1 %325
 [D,,,D,,]4 [D,,,D,,]2 | [D,,,D,,]4 [D,,,D,,]2 :|2 [D,,,D,,] z [F,,,F,,]4 || %328
 [G,,,G,,]4 .[E,,,E,,] z | .[D,,,D,,] z [F,,,F,,]4 | [G,,,G,,]4 .[E,,,E,,] z | %331
 [D,,,D,,] z [F,,,F,,] z [G,,,G,,] z | [D,,,D,,] z [F,,,F,,] z [G,,,G,,] z | %333
 [D,,,D,,] z [F,,,F,,] z [G,,,G,,] z | [D,,,D,,] z [F,,,F,,] z [G,,,G,,] z | %335
 !>![D,,,D,,]2 !>![D,,D,]2 !>![D,,D,]2 | !>![B,,,B,,]2 !>![A,,,A,,]7/2 [D,,D,]/ | %337
 !>![D,,D,]2 !>![A,,,A,,]2 !>![F,,,F,,]2 | !>![D,,,D,,] z z2 z2 |] %339
V:7
 x6 | x6 | x6 | x6 | x6 | x6 | x6 | x6 | x6 | x6 | x6 | x6 | x6 | x6 | x6 | x6 | x6 | x6 | %18
[K:treble] x6 |[K:bass] x4[K:treble] x2 | x6 | x6 | x6 | x6 | x6 |[K:bass] x6 | x6 | x6 | %28
[K:treble] x6 |[K:bass] x6 | x6 | x6 | x6 || x6 | x6 | x6 | x6 | x6 | z2 [D,E,G,]2 [D,E,G,]2 | %39
 z2 .[D,F,]2 .[D,F,]2 | z2 .[D,F,]2 .[D,F,]2 | x6 | x2 [D,G,]2 [D,G,]2 | F,2 .[D,F,]2 .[D,F,A,]2 | %44
 x6 | x6 | x6 | x6 | x6 | x6 | x6 | x2 E,4 | x6 | x6 | z2 [D,E,G,]2 [D,E,G,]2 | %55
 z2 .[D,F,]2 .[D,F,]2 | z2 .[D,F,]2 .[D,F,]2 | x6 | x2 [D,G,]2 [D,G,]2 | F,2 .[D,F,]2 .[D,F,A,]2 | %60
 x6 | x6 | x6 | x6 | x6 | x6 | x6 | x6 | x6 |: z2 [F,A,]2 [F,A,]2 | z2 [F,A,]2 [F,A,]2 | %71
 z2 [E,G,]2 [E,G,]2 | x6 | x6 | x6 | x6 | x6 | x6 | x6 | x6 | x6 |1 x6 | x6 | x6 | x6 :|2 x6 || %86
 x6 | x6 | x6 | x6 | z2 [D,E,G,]2 [D,E,G,]2 | z2 .[D,F,]2 .[D,F,]2 | z2 .[D,F,]2 .[D,F,]2 | x6 | %94
 x2 [D,E,G,]2 [D,E,G,]2 | F,2 .[D,F,]2 .[D,F,A,]2 | x6 | x6 | x6 | x6 | x6 |[K:treble] x6 | x6 | %103
[K:bass] z2 .[^G,D]2 .[G,D]2 | x6 | x6 | z2!>(! [D,E,G,]2 [D,E,G,]2!>)! | z2 .[D,F,]2 .[D,F,]2 | %108
 x6 | x6 | x2 [D,E,G,]2 [D,E,G,]2 | x6 | x6 | x6 | x6 | x6 | x6 | x6 | x6 | x6 | x6 |: x6 | x6 | %123
 x6 | x6 | x6 | x6 | x6 | x6 | x6 | x6 | x6 | x6 |1 x6 | x6 | x6 | x6 :|2 x6 || x6 | x6 | x6 | %141
 z2 .[A,=C]2 .[A,C]2 | z2 .[A,=C]2 .[A,C]2 | z2 .[G,B,]2 .[G,B,]2 | z2 .[G,B,]2 .[G,B,]2 | %145
 z2 .[A,=C]2 .[A,C]2 | z2 .[A,E]2 .[A,E]2 | z2 [A,F]2 [A,F]2 |[K:treble] D4 ^D2 | z2 .A,2 .A,2 | %150
[K:bass] z2 .[A,=C]2 .[A,C]2 | z2!<(! .[B,D]2 .[B,D]2 | x2 x2 [^C,G,]2!<)! | x6 | x6 | x6 | x6 | %157
 z2 .[A,=C]2 .[A,C]2 | z2 .[A,=C]2 .[F,A,]2 | x6 | x6 | z2 .[E,A,]2 .[E,A,]2 | %162
 z2 .[E,A,E]2 .[E,A,E]2 | z2 .[A,F]2 .[A,F]2 | G,2 [G,B,]2 [G,B,]2 | z2 .[A,=C]2 .[A,C]2 | x6 | %167
 x6 | x6 | x6 | x6 |[K:treble] x6 | x6 | x6 | x6 | z2!p! C2 C2 | x6 | z2!p! B,2 B,2 | x6 | %179
[K:bass] z2!p! F,2 F,2 | z2 F,2 F,2 | z2!p! G,2 G,2 | x6 | x6 | x6 | x6 | x6 |[K:treble] x6 | x6 | %189
 x6 | x6 | z2 C2 C2 | x6 | z2 B,2 B,2 | x6 | z2 B,2 B,2 | x6 | z2 B,2 B,2 | x6 | x6 | x6 | x6 | %202
 x[K:bass] x5 | x6 |[K:treble] x6 | x6 | x6 | x2[K:bass] x4 |[K:treble] x6 | x6 | x6 | x6 | x6 | %213
 x6 | x6 | x6 | x6 |[K:bass] x6 | x6 | x6 | x6 |[K:treble] x4[K:bass] x2 | x6 | x6 | x6 | x6 | %226
 z2!>(! [D,E,G,]2 [D,E,G,]2!>)! | z2 .[D,F,]2 .[D,F,]2 | z2 .[D,F,]2 .[D,F,]2 | x6 | %230
 x2 [D,E,G,]2!>(! [D,E,G,]2 | F,2!>)!!p! [D,F,]2 [D,F,]2 | x6 | x6 | x6 | x6 | x6 | x6 | x6 | x6 | %240
 x6 | x6 | z2!>(! [D,E,G,]2 [D,E,G,]2!>)! | z2 .[D,F,]2 .[D,F,]2 | z2 .[D,F,]2 .[D,F,]2 | x6 | %246
 x2 [D,E,G,]2!>(! [D,E,G,]2!>)! | F,2 [D,F,]2 [D,F,]2 | x6 | x6 | x6 | x6 | x6 | x6 | x6 | x6 | %256
 x6 |: x6 | x6 | x6 | x6 | x6 | x6 | x6 | x6 | x6 | x6 | x6 | x6 |1 x6 | x6 | x6 | x6 :|2 %273
 z2 [A,B,]2 [A,B,]2 || z2 [A,B,]2 [A,^B,]2 | x6 | x6 | x6 |[K:treble] x6 | x6 |[K:bass] x6 | x6 | %282
[K:treble] x6 | x6 |[K:bass] x6 | x6 |[K:treble] x6 | x6 |[K:bass] x6 | x6 |[K:treble] x6 | x6 | %292
[K:bass] x6 | x6 | x6 | x6 | x6 | x6 | x6 | x4[K:treble] x2 | x6 | x6 | x6 | x6 | x6 | x6 | x6 | %307
 x6 |[K:bass] x6 | x6 | x6 |: x2[K:treble] x4 | x6 |[K:bass] z2 B,B, G,2 | z2 .C.C ^G,2 | x6 | %316
[K:treble] x6 |[K:bass] z2 ._B,.B, .B, z | z2 .B,.B, .B, z | x6 | x6 | x6 | x6 | x6 | x6 |1 x6 | %326
 x6 :|2 x6 || x6 | x6 | x6 | x6 | x6 | x6 | x6 | x6 |[K:treble] x11/2[K:bass] x/ | x6 | x6 |] %339
V:8
 x6 | x6 | x6 | x6 | x6 | x6 | x6 | x6 | x6 | x6 | x6 | x6 | x6 | x6 | x6 | x6 | x6 | x6 | x6 | %19
 x6 | x6 | x6 | x6 | x6 | x6 | x6 | x6 | x6 | x6 | x6 | x6 | x6 | x6 || x6 | x6 | x6 | x6 | x6 | %38
 x6 | x6 | x6 | x6 | x6 | x6 | x6 | x6 | x6 | x6 | x6 | x6 | x6 | x6 | x6 | x6 | x6 | x6 | x6 | %57
 x6 | x6 | x6 | x6 | x6 | x6 | x6 | x6 | x6 | x6 | x6 | x6 |: x6 | x6 | x6 | x6 | x6 | x6 | x6 | %76
 x6 | x6 | x6 | x6 | x6 |1 x6 | x6 | x6 | x6 :|2 x6 || x6 | x6 | x6 | x6 | x6 | x6 | x6 | x6 | x6 | %95
 x6 | x6 | x6 | x6 | x6 | x6 | E,,2 z2 z2 | B,,,2 z2 z2 | x6 | x6 | x6 | x6 | x6 | x6 | x6 | x6 | %111
 x6 | x6 | x6 | x6 | x6 | x6 | x6 | x6 | x6 | x6 |: D,,2 z2 z2 | A,,,2 z2 z2 | E,,2 z2 z2 | %124
 A,,,2 z2 z2 | B,,,2 z2 z2 | A,,,2 z2 z2 | D,,2 z2 z2 | A,,,2 z2 z2 | D,,2 z2 z2 | A,,,2 z2 z2 | %131
 x6 | A,,,2 z2 z2 |1 x6 | x6 | x6 | x6 :|2 F,,2 z2 z2 || =F,,2 z4 | x6 | x6 | F,,2 z2 z2 | %142
 D,,2 z2 z2 | x6 | E,,2 z2 z2 | x6 | A,,,2 z2 z2 | D,,2 z2 z2 | x6 | !>!F,,2 z2 z2 | D,,2 z2 z2 | %151
 x6 | E,,4 G,,2 | x6 | x6 | x6 | x6 | x6 | x6 | x6 | x6 | x6 | x6 | x6 | x6 | x6 | x6 | x6 | x6 | %169
 x6 | x6 | x6 | x6 | x6 | x6 | x6 | x6 | x6 | x6 | x6 | x6 | x6 | x6 | x6 | x6 | x6 | x6 | x6 | %188
 x6 | x6 | x6 | x6 | x6 | x6 | x6 | x6 | x6 | x6 | x6 | x6 | x6 | x6 | x6 | x6 | x6 | x6 | x6 | %207
 x6 | x6 | x6 | x6 | x6 | x6 | x6 | x6 | x6 | x6 | x6 | x6 | x6 | x6 | x6 | x6 | x6 | x6 | x6 | %226
 x6 | x6 | x6 | x6 | x6 | x6 | x6 | x6 | x6 | x6 | x6 | x6 | x6 | x6 | x6 | x6 | x6 | x6 | x6 | %245
 x6 | x6 | x6 | x6 | x6 | x6 | x6 | x6 | x6 | x6 | x6 | x6 |: x6 | x6 | x6 | x6 | x6 | x6 | x6 | %264
 x6 | x6 | x6 | x6 | x6 |1 x6 | x6 | x6 | x6 :|2 x6 || x6 | x6 | x6 | x6 | x6 | x6 | x6 | x6 | x6 | %283
 x6 | x6 | D,,2 z2 z2 | =C,,2 z2 z2 | _B,,,2 z2 z2 | _E,,2 z2 z2 | D,,2 z2 z2 | =C,,2 z2 z2 | x6 | %292
 x6 | x6 | x6 | x6 | x6 | x6 | x6 | x4!8vb(! x2 | x6 | x2!8vb)! x4 | x6 | x6 | x6 | x6 | x6 | x6 | %308
 x6 | x6 | x6 |: x6 | x6 | x6 | x6 | x6 | x6 | x6 | x6 | x6 | x6 | x6 | x6 | x6 | x6 |1 x6 | x6 :|2 %327
 x6 || x6 | x6 | x6 | x6 | x6 | x6 | x6 | x6 | x6 | x6 | x6 |] %339

